icons/mirror-24.svg

<svg xmlns="http://www.w3.org/2000/svg" width="24" height="24" viewBox="0 0 24 24"><path fill-rule="evenodd" d="M12 10.75a.75.75 0 01.75.75v1a.75.75 0 01-1.5 0v-1a.75.75 0 01.75-.75zm0 4a.75.75 0 01.75.75v1a.75.75 0 01-1.5 0v-1a.75.75 0 01.75-.75zm0 4a.75.75 0 01.75.75v1a.75.75 0 01-1.5 0v-1a.75.75 0 01.75-.75zm0-12a.75.75 0 01.75.75v1a.75.75 0 01-1.5 0v-1a.75.75 0 01.75-.75zm0-4a.75.75 0 01.75.75v1a.75.75 0 01-1.5 0v-1a.75.75 0 01.75-.75zm9.553 3.314A.75.75 0 0122 6.75v10.5a.75.75 0 01-1.256.554l-5.75-5.25a.75.75 0 010-1.108l5.75-5.25a.75.75 0 01.809-.132zM16.613 12l3.887 3.55v-7.1L16.612 12zM2.447 17.936A.75.75 0 012 17.25V6.75a.75.75 0 011.256-.554l5.75 5.25a.75.75 0 010 1.108l-5.75 5.25a.75.75 0 01-.809.132zM7.387 12L3.5 8.45v7.1L7.388 12z"/></svg>

<svg xmlns="http://www.w3.org/2000/svg" width="24" height="24" viewBox="0 0 24 24">
  <defs/>
  <path d="M21.553,6.064 C21.825,6.184 22,6.453 22,6.75 L22,17.25 C22,17.547 21.825,17.817 21.553,17.937 C21.281,18.057 20.963,18.005 20.744,17.804 L14.994,12.554 C14.838,12.412 14.75,12.211 14.75,12 C14.75,11.789 14.838,11.588 14.994,11.446 L20.744,6.196 C20.964,5.995 21.281,5.944 21.553,6.064 Z M2.447,17.936 C2.175,17.816 2,17.547 2,17.25 L2,6.75 C2,6.453 2.175,6.183 2.447,6.063 C2.719,5.943 3.037,5.995 3.256,6.196 L9.006,11.446 C9.162,11.588 9.25,11.789 9.25,12 C9.25,12.211 9.162,12.412 9.006,12.554 L3.256,17.804 C3.036,18.005 2.719,18.056 2.447,17.936 Z M7.387,12 L3.5,8.45 L3.5,15.55 L7.388,12 Z M16.613,12 L20.5,15.55 L20.5,8.45 L16.612,12 Z M12,2.75 C12.414,2.75 12.75,3.086 12.75,3.5 L12.75,4.5 C12.75,4.914 12.414,5.25 12,5.25 C11.586,5.25 11.25,4.914 11.25,4.5 L11.25,3.5 C11.25,3.086 11.586,2.75 12,2.75 Z M12,6.75 C12.414,6.75 12.75,7.086 12.75,7.5 L12.75,8.5 C12.75,8.914 12.414,9.25 12,9.25 C11.586,9.25 11.25,8.914 11.25,8.5 L11.25,7.5 C11.25,7.086 11.586,6.75 12,6.75 Z M12,14.75 C12.414,14.75 12.75,15.086 12.75,15.5 L12.75,16.5 C12.75,16.914 12.414,17.25 12,17.25 C11.586,17.25 11.25,16.914 11.25,16.5 L11.25,15.5 C11.25,15.086 11.586,14.75 12,14.75 Z M12,18.75 C12.414,18.75 12.75,19.086 12.75,19.5 L12.75,20.5 C12.75,20.914 12.414,21.25 12,21.25 C11.586,21.25 11.25,20.914 11.25,20.5 L11.25,19.5 C11.25,19.086 11.586,18.75 12,18.75 Z M12,10.75 C12.414,10.75 12.75,11.086 12.75,11.5 L12.75,12.5 C12.75,12.914 12.414,13.25 12,13.25 C11.586,13.25 11.25,12.914 11.25,12.5 L11.25,11.5 C11.25,11.086 11.586,10.75 12,10.75 Z"/>
</svg>
